images/portal/5828.svg

<?xml version="1.0" standalone="no"?><!DOCTYPE svg PUBLIC "-//W3C//DTD SVG 1.1//EN" "http://www.w3.org/Graphics/SVG/1.1/DTD/svg11.dtd"><svg xmlns:xlink="http://www.w3.org/1999/xlink" version="1.1" class="highcharts-root" style="font-family:arial;font-size:12px;" xmlns="http://www.w3.org/2000/svg" width="485" height="415"><desc>Created with Highstock 5.0.14</desc><defs><clipPath id="highcharts-z7b0tua-6"><rect x="0" y="0" width="435" height="308" fill="none"></rect></clipPath><clipPath id="highcharts-z7b0tua-7"><rect x="0" y="0" width="435" height="308" fill="none"></rect></clipPath></defs><rect fill="#fbfbfb" class="highcharts-background" x="0" y="0" width="485" height="415" rx="0" ry="0"></rect><rect fill="none" class="highcharts-plot-background" x="40" y="41" width="435" height="308"></rect><g class="highcharts-pane-group"></g><g class="highcharts-grid highcharts-xaxis-grid "><path fill="none" class="highcharts-grid-line" d="M 43.5 41 L 43.5 349" opacity="1"></path><path fill="none" class="highcharts-grid-line" d="M 129.5 41 L 129.5 349" opacity="1"></path><path fill="none" class="highcharts-grid-line" d="M 214.5 41 L 214.5 349" opacity="1"></path><path fill="none" class="highcharts-grid-line" d="M 299.5 41 L 299.5 349" opacity="1"></path><path fill="none" class="highcharts-grid-line" d="M 384.5 41 L 384.5 349" opacity="1"></path><path fill="none" class="highcharts-grid-line" d="M 470.5 41 L 470.5 349" opacity="1"></path></g><g class="highcharts-grid highcharts-yaxis-grid "><path fill="none" stroke="#B9CFD7" stroke-width="0.5" class="highcharts-grid-line" d="M 40 349.25 L 475 349.25" opacity="1"></path><path fill="none" stroke="#B9CFD7" stroke-width="0.5" class="highcharts-grid-line" d="M 40 298.25 L 475 298.25" opacity="1"></path><path fill="none" stroke="#B9CFD7" stroke-width="0.5" class="highcharts-grid-line" d="M 40 246.25 L 475 246.25" opacity="1"></path><path fill="none" stroke="#B9CFD7" stroke-width="0.5" class="highcharts-grid-line" d="M 40 195.25 L 475 195.25" opacity="1"></path><path fill="none" stroke="#B9CFD7" stroke-width="0.5" class="highcharts-grid-line" d="M 40 144.25 L 475 144.25" opacity="1"></path><path fill="none" stroke="#B9CFD7" stroke-width="0.5" class="highcharts-grid-line" d="M 40 92.25 L 475 92.25" opacity="1"></path><path fill="none" stroke="#B9CFD7" stroke-width="0.5" class="highcharts-grid-line" d="M 40 40.75 L 475 40.75" opacity="1"></path></g><rect fill="none" class="highcharts-plot-border" x="40" y="41" width="435" height="308"></rect><g class="highcharts-axis highcharts-xaxis "><path fill="none" class="highcharts-axis-line" stroke="#B9CFD7" stroke-width="0.5" d="M 40 349.25 L 475 349.25"></path></g><g class="highcharts-axis highcharts-yaxis "><path fill="none" class="highcharts-axis-line" d="M 40 41 L 40 349"></path></g><g class="highcharts-series-group"><g class="highcharts-series highcharts-series-0 highcharts-line-series highcharts-color-undefined " transform="translate(40,41) scale(1 1)" clip-path="url(#highcharts-z7b0tua-7)"><path fill="none" d="M 4.2647058823491 37.41098169731998 L 89.558823529409 52.358056196086665 L 174.85294117647 52.87551853173332 L 260.14705882353 55.24117088951999 L 345.44117647059 59.004358537226636 L 430.73529411765 52.05991609331332" class="highcharts-graph" stroke="#8b2223" stroke-width="2" stroke-linejoin="round" stroke-linecap="round"></path></g><g class="highcharts-markers highcharts-series-0 highcharts-line-series highcharts-color-undefined " transform="translate(40,41) scale(1 1)" clip-path="none"><path fill="#8b2223" d="M 8 37 A 4 4 0 1 1 7.999998000000167 36.99600000066666 Z" class="highcharts-point"></path><path fill="#8b2223" d="M 93 52 A 4 4 0 1 1 92.99999800000016 51.99600000066666 Z" class="highcharts-point"></path><path fill="#8b2223" d="M 178 53 A 4 4 0 1 1 177.99999800000018 52.99600000066666 Z" class="highcharts-point"></path><path fill="#8b2223" d="M 264 55 A 4 4 0 1 1 263.9999980000002 54.99600000066666 Z" class="highcharts-point"></path><path fill="#8b2223" d="M 349 59 A 4 4 0 1 1 348.9999980000002 58.99600000066666 Z" class="highcharts-point"></path><path fill="#8b2223" d="M 434 52 A 4 4 0 1 1 433.9999980000002 51.99600000066666 Z" class="highcharts-point"></path></g></g><text x="10" text-anchor="start" class="highcharts-title" style="color:#000000;font-size:14px;font-weight:bold;fill:#000000;" y="21"><tspan>Anzahl privater Personenwagen pro Haushalt</tspan></text><g class="highcharts-data-labels highcharts-series-0 highcharts-line-series highcharts-color-undefined " visibility="visible" transform="translate(40,41) scale(1 1)"><g class="highcharts-label highcharts-data-label highcharts-data-label-color-undefined " transform="translate(-5,44)"><text x="5" style="font-size:11px;font-weight:bold;color:#000000;fill:#000000;" y="16"><tspan x="5" y="16" class="highcharts-text-outline" fill="#FFFFFF" stroke="#FFFFFF" stroke-width="2px" stroke-linejoin="round" style="">0,53</tspan><tspan x="5" y="16">0,53</tspan></text></g><g class="highcharts-label highcharts-data-label highcharts-data-label-color-undefined " transform="translate(85,72)"><text x="5" style="font-size:11px;font-weight:bold;color:#000000;fill:#000000;" y="16"></text></g><g class="highcharts-label highcharts-data-label highcharts-data-label-color-undefined " transform="translate(170,73)"><text x="5" style="font-size:11px;font-weight:bold;color:#000000;fill:#000000;" y="16"></text></g><g class="highcharts-label highcharts-data-label highcharts-data-label-color-undefined " transform="translate(255,75)"><text x="5" style="font-size:11px;font-weight:bold;color:#000000;fill:#000000;" y="16"></text></g><g class="highcharts-label highcharts-data-label highcharts-data-label-color-undefined " transform="translate(340,79)"><text x="5" style="font-size:11px;font-weight:bold;color:#000000;fill:#000000;" y="16"></text></g><g class="highcharts-label highcharts-data-label highcharts-data-label-color-undefined " transform="translate(409,59)"><text x="5" style="font-size:11px;font-weight:bold;color:#000000;fill:#000000;" y="16"><tspan x="5" y="16" class="highcharts-text-outline" fill="#FFFFFF" stroke="#FFFFFF" stroke-width="2px" stroke-linejoin="round">0,50</tspan><tspan x="5" y="16">0,50</tspan></text></g></g><g class="highcharts-axis-labels highcharts-xaxis-labels "><text x="44.26470588234914" style="color:#000000;cursor:default;font-size:11px;fill:#000000;" text-anchor="middle" transform="translate(0,0)" y="368" opacity="1"><tspan>2010</tspan></text><text x="129.5588235294095" style="color:#000000;cursor:default;font-size:11px;fill:#000000;" text-anchor="middle" transform="translate(0,0)" y="368" opacity="1"><tspan>2011</tspan></text><text x="214.85294117646984" style="color:#000000;cursor:default;font-size:11px;fill:#000000;" text-anchor="middle" transform="translate(0,0)" y="368" opacity="1"><tspan>2012</tspan></text><text x="300.1470588235302" style="color:#000000;cursor:default;font-size:11px;fill:#000000;" text-anchor="middle" transform="translate(0,0)" y="368" opacity="1"><tspan>2013</tspan></text><text x="385.4411764705905" style="color:#000000;cursor:default;font-size:11px;fill:#000000;" text-anchor="middle" transform="translate(0,0)" y="368" opacity="1"><tspan>2014</tspan></text><text x="462.78125" style="color:#000000;cursor:default;font-size:11px;fill:#000000;" text-anchor="middle" transform="translate(0,0)" y="368" opacity="1"><tspan>2015</tspan></text></g><g class="highcharts-axis-labels highcharts-yaxis-labels "><text x="25" style="color:#000000;cursor:default;font-size:11px;fill:#000000;" text-anchor="end" transform="translate(0,0)" y="354" opacity="1"><tspan>0.0</tspan></text><text x="25" style="color:#000000;cursor:default;font-size:11px;fill:#000000;" text-anchor="end" transform="translate(0,0)" y="302" opacity="1"><tspan>0.1</tspan></text><text x="25" style="color:#000000;cursor:default;font-size:11px;fill:#000000;" text-anchor="end" transform="translate(0,0)" y="251" opacity="1"><tspan>0.2</tspan></text><text x="25" style="color:#000000;cursor:default;font-size:11px;fill:#000000;" text-anchor="end" transform="translate(0,0)" y="200" opacity="1"><tspan>0.3</tspan></text><text x="25" style="color:#000000;cursor:default;font-size:11px;fill:#000000;" text-anchor="end" transform="translate(0,0)" y="148" opacity="1"><tspan>0.4</tspan></text><text x="25" style="color:#000000;cursor:default;font-size:11px;fill:#000000;" text-anchor="end" transform="translate(0,0)" y="97" opacity="1"><tspan>0.5</tspan></text><text x="25" style="color:#000000;cursor:default;font-size:11px;fill:#000000;" text-anchor="end" transform="translate(0,0)" y="46" opacity="1"><tspan>0.6</tspan></text></g><text x="10" class="highcharts-credits" text-anchor="start" style="cursor:default;color:#000000;font-size:10px;fill:#000000;" y="400"><tspan>Quelle: Statistisches Amt Basel-Stadt; Motorfahrzeugkontrolle Basel-Stadt</tspan></text></svg>

<svg class="highcharts-root" xmlns="http://www.w3.org/2000/svg" width="485" height="415" font-family="arial" font-size="12">
    <defs>
        <clipPath id="a">
            <path fill="none" d="M0 0h435v308H0z"/>
        </clipPath>
    </defs>
    <rect fill="#fbfbfb" class="highcharts-background" width="485" height="415" rx="0" ry="0"/>
    <path fill="none" class="highcharts-plot-background" d="M40 41h435v308H40z"/>
    <g class="highcharts-grid highcharts-xaxis-grid">
        <path fill="none" class="highcharts-grid-line" d="M43.5 41v308m86-308v308m85-308v308m85-308v308m85-308v308m86-308v308"/>
    </g>
    <g class="highcharts-grid highcharts-yaxis-grid">
        <path fill="none" stroke="#B9CFD7" stroke-width=".5" class="highcharts-grid-line" d="M40 349.25h435m-435-51h435m-435-52h435m-435-51h435m-435-51h435m-435-52h435M40 40.75h435"/>
    </g>
    <path fill="none" class="highcharts-plot-border" d="M40 41h435v308H40z"/>
    <g class="highcharts-axis highcharts-xaxis">
        <path fill="none" class="highcharts-axis-line" stroke="#B9CFD7" stroke-width=".5" d="M40 349.25h435"/>
    </g>
    <g class="highcharts-axis highcharts-yaxis">
        <path fill="none" class="highcharts-axis-line" d="M40 41v308"/>
    </g>
    <g class="highcharts-series-group">
        <g class="highcharts-series highcharts-series-0 highcharts-line-series highcharts-color-undefined" transform="translate(40 41)" clip-path="url(#a)">
            <path fill="none" d="M4.265 37.411l85.294 14.947 85.294.518 85.294 2.365 85.294 3.763 85.294-6.944" class="highcharts-graph" stroke="#8b2223" stroke-width="2" stroke-linejoin="round" stroke-linecap="round"/>
        </g>
        <g class="highcharts-markers highcharts-series-0 highcharts-line-series highcharts-color-undefined">
            <path fill="#8b2223" d="M48 78a4 4 0 1 1 0-.004zm85 15a4 4 0 1 1 0-.004zm85 1a4 4 0 1 1 0-.004zm86 2a4 4 0 1 1 0-.004zm85 4a4 4 0 1 1 0-.004zm85-7a4 4 0 1 1 0-.004z" class="highcharts-point"/>
        </g>
    </g>
    <text x="10" class="highcharts-title" y="21" color="#000" font-size="14" font-weight="700">
        <tspan>Anzahl privater Personenwagen pro Haushalt</tspan>
    </text>
    <g class="highcharts-data-labels highcharts-series-0 highcharts-line-series highcharts-color-undefined">
        <text x="5" y="16" font-size="11" font-weight="700" color="#000" transform="translate(35 85)" class="highcharts-label highcharts-data-label highcharts-data-label-color-undefined">
            <tspan x="5" y="16" class="highcharts-text-outline" fill="#FFF" stroke="#FFF" stroke-width="2" stroke-linejoin="round">0,53</tspan><tspan x="5" y="16">0,53</tspan>
        </text>
        <text x="5" y="16" font-size="11" font-weight="700" color="#000" transform="translate(449 100)" class="highcharts-label highcharts-data-label highcharts-data-label-color-undefined">
            <tspan x="5" y="16" class="highcharts-text-outline" fill="#FFF" stroke="#FFF" stroke-width="2" stroke-linejoin="round">0,50</tspan><tspan x="5" y="16">0,50</tspan>
        </text>
    </g>
    <g class="highcharts-axis-labels highcharts-xaxis-labels" text-anchor="middle" color="#000" cursor="default" font-size="11">
        <text x="44.265" y="368">
            <tspan>2010</tspan>
        </text>
        <text x="129.559" y="368">
            <tspan>2011</tspan>
        </text>
        <text x="214.853" y="368">
            <tspan>2012</tspan>
        </text>
        <text x="300.147" y="368">
            <tspan>2013</tspan>
        </text>
        <text x="385.441" y="368">
            <tspan>2014</tspan>
        </text>
        <text x="462.781" y="368">
            <tspan>2015</tspan>
        </text>
    </g>
    <g class="highcharts-axis-labels highcharts-yaxis-labels" text-anchor="end" color="#000" cursor="default" font-size="11">
        <text x="25" y="354">
            <tspan>0.0</tspan>
        </text>
        <text x="25" y="302">
            <tspan>0.1</tspan>
        </text>
        <text x="25" y="251">
            <tspan>0.2</tspan>
        </text>
        <text x="25" y="200">
            <tspan>0.3</tspan>
        </text>
        <text x="25" y="148">
            <tspan>0.4</tspan>
        </text>
        <text x="25" y="97">
            <tspan>0.5</tspan>
        </text>
        <text x="25" y="46">
            <tspan>0.6</tspan>
        </text>
    </g>
    <text x="10" class="highcharts-credits" y="400" cursor="default" color="#000" font-size="10">
        <tspan>Quelle: Statistisches Amt Basel-Stadt; Motorfahrzeugkontrolle Basel-Stadt</tspan>
    </text>
</svg>
